source/img/htmlacademy-icon.svg

<svg xmlns="http://www.w3.org/2000/svg" viewBox="0 0 156 196" width="27" height="34"><style>tspan { white-space:pre }.shp0 { fill: #63d1bb;stroke: #63d1bb } </style><g ><path fill-rule="evenodd" class="shp0" d="M154.69 8.92L154.69 149.49L78 195.12L1.31 149.49L1.31 8.92L78 0.88L78.8 0.96L154.69 8.92ZM144.66 85.2L124.09 97.48L124.09 120.18L124.15 120.15L124.15 127.13L78 154.75L32.29 127.27L32.35 120.32L78.05 147.51L77.94 140.16L32.22 112.68L32.29 105.73L77.83 132.83L77.71 125.67L11.34 86.17L11.34 143.78L78 183.45L144.66 143.78L144.66 85.2ZM77.62 38.69L77.62 38.68L11.48 78.44L77.53 117.7L88.82 110.92L77.74 104.39L77.8 97.44L94.69 107.39L94.82 107.31L100.1 103.78L77.74 90.49L77.8 83.54L106.13 100.39L111.01 97.52L111.75 97.08L112.05 96.9L77.74 76.5L77.8 69.54L117.95 93.43L126.37 88.47L144.61 77.72L77.62 38.69ZM144.66 17.96L78 10.97L11.34 17.96L11.34 70.69L77.62 31.22L77.62 31.21L77.63 31.22L77.64 31.21L77.64 31.22L144.66 70.73L144.66 17.96Z" /></g></svg>

<svg xmlns="http://www.w3.org/2000/svg" viewBox="0 0 156 196" width="27" height="34"><path fill="#63d1bb" fill-rule="evenodd" stroke="#63d1bb" d="M154.7 9v140.5L78 195 1.3 149.5V8.9L78 1h.8l75.9 8zm-10 76.2L124 97.5v22.7h0v7L78 154.6l-45.7-27.4v-7l45.8 27.2-.2-7.3-45.7-27.5v-7l45.6 27.1v-7.1L11.2 86.2v57.6L78 183.4l66.7-39.6V85.2zm-67-46.5h0L11.4 78.4l66 39.3 11.3-6.8-11-6.5v-7l16.9 10h.1l5.3-3.6-22.4-13.3.1-7 28.3 16.9 5-2.9.7-.4.3-.2-34.4-20.4.1-7 40.2 24 8.4-5 18.2-10.8-67-39zm67-20.7L78 11l-66.7 7v52.7l66.3-39.5h0l67 39.5V18z"/></svg>
